assets/build/img/checkmark.svg

<svg width="18" height="18" viewBox="0 0 18 18" fill="none" xmlns="http://www.w3.org/2000/svg">
<g clip-path="url(#clip0)">
<path d="M8.24979 17.2387C3.70118 17.2387 0 13.5377 0 8.98905C0 4.44044 3.70118 0.739258 8.24979 0.739258C9.8315 0.739258 11.3704 1.18996 12.7001 2.04343C12.9611 2.21152 13.0376 2.5595 12.8695 2.82124C12.7009 3.08298 12.3536 3.15865 12.0919 2.9907C10.9444 2.2534 9.61548 1.86422 8.24979 1.86422C4.32134 1.86422 1.12496 5.0606 1.12496 8.98905C1.12496 12.9174 4.32134 16.1137 8.24979 16.1137C12.1781 16.1137 15.3745 12.9174 15.3745 8.98905C15.3745 8.75422 15.3632 8.52173 15.3415 8.29308C15.3116 7.98328 15.538 7.70877 15.847 7.67883C16.1575 7.65027 16.4312 7.87534 16.4613 8.18432C16.4867 8.44908 16.4994 8.71755 16.4994 8.98905C16.4994 13.5377 12.7984 17.2387 8.24979 17.2387Z" fill="#00642F"/>
<path d="M9.18716 10.8637C9.04325 10.8637 8.89919 10.8089 8.78975 10.6988L5.41485 7.32391C5.19513 7.10406 5.19513 6.74784 5.41485 6.52812C5.63457 6.3084 5.99079 6.3084 6.21051 6.52812L9.18799 9.50559L17.0394 1.65405C17.2593 1.43433 17.6155 1.43433 17.8352 1.65405C18.0549 1.87377 18.0549 2.22999 17.8352 2.44971L9.58541 10.6995C9.47513 10.8089 9.33122 10.8637 9.18716 10.8637Z" fill="#00642F"/>
</g>
<defs>
<clipPath id="clip0">
<rect width="18" height="18" fill="white"/>
</clipPath>
</defs>
</svg>

<svg width="18" height="18" viewBox="0 0 18 18" fill="none" xmlns="http://www.w3.org/2000/svg"><g clip-path="url(#clip0)" fill="#00642F"><path d="M8.25 17.239C3.7 17.239 0 13.538 0 8.989 0 4.44 3.701.74 8.25.74c1.582 0 3.12.451 4.45 1.304a.563.563 0 01-.608.948A7.094 7.094 0 008.25 1.864c-3.929 0-7.125 3.197-7.125 7.125s3.196 7.125 7.125 7.125c3.928 0 7.124-3.197 7.124-7.125a7.37 7.37 0 00-.033-.696.562.562 0 111.12-.109c.026.265.038.534.038.805 0 4.549-3.7 8.25-8.25 8.25z"/><path d="M9.187 10.864a.558.558 0 01-.397-.165L5.415 7.324a.563.563 0 01.796-.796l2.977 2.978 7.851-7.852a.563.563 0 01.796.796l-8.25 8.25a.564.564 0 01-.398.164z"/></g><defs><clipPath id="clip0"><path fill="#fff" d="M0 0h18v18H0z"/></clipPath></defs></svg>
